X:1
T:Shanghai
M:4/4
L:1/8
S:Abel Browning (Garrett County, Maryland) via Walter Neal (southwestern Pa.,)
N:Collected in 1952.
B:Bayard - Dance to the Fiddle, March to the Fife (1981, No. 178)
K:A
e2e2e2 ef|e2d2A4|[E2B2] AB c2 (3BcB|A2E2 C4|
e2e2e2 ef|e2c2A4|E4c3A|BcBG A4||
E3^D E2d2|cdcB Acea|g2 (3fgf edcd|e2 ef edcA|
E3^D E2d2|cdcB Acea|g2 {g}(3fgf edcB|A2A2 A4||
|:e2 [Ae]B c2A2|e2 [Ae]B c2A2|e2e2e2 ef|1 edcB A4:|2 edcB A2 Bc||
|:[F2d2][Fd]c [F2d2]E2|[E2c2][Ec]B [E2c2]E2|[E2B2]B2c2 (3BcB|A2A2 ABcA|
[F2d2][Fd]c[F2d2]E2|[E2c2][Ec]B [E2c2] E2|[E2B2]B2c2 (3BcB|1[E2A2]A2 ABcA:|2A2A2 A4||

